trunk/WorldWind/resources/milstd2525/icons/ems/ehiadl---------.svg

<?xml version="1.0" encoding="UTF-8" standalone="no"?>
<!--
Copyright (C) 2012 United States Government as represented by the Administrator of the
National Aeronautics and Space Administration.
All Rights Reserved.
-->

<!--
MIL-STD-2525 tactical symbol icon image. During icon composition this image is multiplied by the desired frame color 
(e.g. black), then drawn on top of the frame and fill.
-->

<svg
   xmlns:dc="http://purl.org/dc/elements/1.1/"
   xmlns:cc="http://creativecommons.org/ns#"
   xmlns:rdf="http://www.w3.org/1999/02/22-rdf-syntax-ns#"
   xmlns:svg="http://www.w3.org/2000/svg"
   xmlns="http://www.w3.org/2000/svg"
   xmlns:sodipodi="http://sodipodi.sourceforge.net/DTD/sodipodi-0.dtd"
   xmlns:inkscape="http://www.inkscape.org/namespaces/inkscape"
   height="400px"
   viewBox="0 0 400 400"
   width="400px"
   id="svg2"
   version="1.1"
   inkscape:version="0.48.2 r9819"
   sodipodi:docname="ehiadl---------.svg">
  <metadata
     id="metadata44">
    <rdf:RDF>
      <cc:Work
         rdf:about="">
        <dc:format>image/svg+xml</dc:format>
        <dc:type
           rdf:resource="http://purl.org/dc/dcmitype/StillImage" />
      </cc:Work>
    </rdf:RDF>
  </metadata>
  <defs
     id="defs42" />
  <sodipodi:namedview
     pagecolor="#ffffff"
     bordercolor="#666666"
     borderopacity="1"
     objecttolerance="10"
     gridtolerance="10"
     guidetolerance="10"
     inkscape:pageopacity="0"
     inkscape:pageshadow="2"
     inkscape:window-width="640"
     inkscape:window-height="480"
     id="namedview40"
     showgrid="false"
     inkscape:zoom="0.59"
     inkscape:cx="200"
     inkscape:cy="200"
     inkscape:window-x="255"
     inkscape:window-y="98"
     inkscape:window-maximized="0"
     inkscape:current-layer="svg2" />
  <g
     transform="matrix(120,0,0,120,50.00004,48.99996)"
     id="g4"
     style="stroke:#000000;stroke-width:0.05;stroke-miterlimit:4;stroke-opacity:1;stroke-dasharray:0.1, 0.1;stroke-dashoffset:0">
    <polygon
       points="1.26277,0.566547 1.26277,0.364929 1.21894,0.364929 1.21894,0.566547 "
       style="fill:#ffffff;stroke:#000000;stroke-width:0.05;stroke-miterlimit:4;stroke-opacity:1;stroke-dasharray:0.1, 0.1;stroke-dashoffset:0"
       id="polygon6" />
    <polygon
       points="0.666197,0.728287 0.856177,0.918209 0.884846,0.887492 0.691701,0.694925 0.690882,0.700028 "
       style="fill:#ffffff;stroke:#000000;stroke-width:0.05;stroke-miterlimit:4;stroke-opacity:1;stroke-dasharray:0.1, 0.1;stroke-dashoffset:0"
       id="polygon8" />
    <polygon
       points="1.63202,0.913886 1.81604,0.727705 1.78839,0.702059 1.60117,0.883059 "
       style="fill:#ffffff;stroke:#000000;stroke-width:0.05;stroke-miterlimit:4;stroke-opacity:1;stroke-dasharray:0.1, 0.1;stroke-dashoffset:0"
       id="polygon10" />
    <polygon
       points="0.709988,1.29404 0.714898,1.25468 0.44315,1.25468 0.44315,1.29412 "
       style="fill:#ffffff;stroke:#000000;stroke-width:0.05;stroke-miterlimit:4;stroke-opacity:1;stroke-dasharray:0.1, 0.1;stroke-dashoffset:0"
       id="polygon12" />
    <polygon
       points="2.03418,1.29412 2.03418,1.25468 1.77996,1.25468 1.77996,1.29412 "
       style="fill:#ffffff;stroke:#000000;stroke-width:0.05;stroke-miterlimit:4;stroke-opacity:1;stroke-dasharray:0.1, 0.1;stroke-dashoffset:0"
       id="polygon14" />
    <path
       inkscape:connector-curvature="0"
       d="m 1.06554,0.96978 0,0.01315 c 0,0.010307 0.02957,0.09039 0.03457,0.10569 C 1.11505,1.13435 1.11482,1.15876 1.11375,1.20646 1.08871,1.20438 1.02295,1.14472 1.00855,1.1232 0.973453,1.07074 0.972048,1.05197 0.955965,0.98293 0.936941,0.996871 0.91652,1.06225 0.91652,1.09689 l 0,0.04821 c 0,0.11564 0.074224,0.1762 0.078894,0.2323 C 0.97678,1.37306 0.89439,1.31145 0.882536,1.29743 0.867866,1.28006 0.814918,1.18785 0.802563,1.18455 c 0,0.08227 0.021697,0.14363 0.043307,0.20214 0.011674,0.03159 0.023937,0.05926 0.034992,0.08773 0.017469,0.04499 0.029906,0.04226 0.054008,0.0731 0.059607,0.07627 0.19544,0.17175 0.32791,0.17175 l 0.01753,0 c 0.04491,0 0.13379,-0.03584 0.16512,-0.05402 C 1.49376,1.63717 1.5381,1.60896 1.56962,1.5659 1.62848,1.48552 1.67916,1.37189 1.67916,1.23276 l 9.9e-4,-0.0571 -0.00537,-0.04809 -0.00877,0 C 1.64326,1.22523 1.57947,1.30438 1.49946,1.34672 1.49946,1.2711 1.52773,1.23677 1.53804,1.1705 1.54584,1.12035 1.51807,1.02695 1.51699,0.978549 1.50768,0.985367 1.49158,1.09087 1.46525,1.12404 1.45791,1.13328 1.3592,1.23289 1.3592,1.18893 l 0,-0.04383 c 0,-0.06238 0.03945,-0.09976 0.03945,-0.170933 0,-0.016819 -0.07164,-0.123697 -0.08516,-0.131492 l 0.00188,0.017531 c 0,0.024071 -0.0081,0.085146 -0.01481,0.103528 C 1.29633,0.975309 1.25347,1.02676 1.24524,1.02676 1.22018,1.02676 1.19265,0.966073 1.19265,0.934718 l 0,-0.021913 c 0,-0.05961 0.05811,-0.126634 0.05418,-0.166776 L 1.23648,0.684887 C 1.22475,0.693482 1.21076,0.747962 1.20324,0.765608 1.1911,0.794104 1.17439,0.81099 1.1568,0.83312 1.1418,0.851994 1.06554,0.950774 1.06554,0.96978 z"
       style="fill:#ffffff;stroke:#000000;stroke-width:0.05;stroke-miterlimit:4;stroke-opacity:1;stroke-dasharray:0.1, 0.1;stroke-dashoffset:0"
       id="path16" />
    <polygon
       points="0.694067,1.85185 0.878079,1.66567 0.849689,1.6393 0.665602,1.82338 "
       style="fill:#ffffff;stroke:#000000;stroke-width:0.05;stroke-miterlimit:4;stroke-opacity:1;stroke-dasharray:0.1, 0.1;stroke-dashoffset:0"
       id="polygon18" />
    <polygon
       points="1.78974,1.85178 1.81611,1.82338 1.63431,1.64375 1.60802,1.67005 "
       style="fill:#ffffff;stroke:#000000;stroke-width:0.05;stroke-miterlimit:4;stroke-opacity:1;stroke-dasharray:0.1, 0.1;stroke-dashoffset:0"
       id="polygon20" />
    <polygon
       points="1.26277,2.0743 1.26277,1.81131 1.21894,1.81131 1.21894,2.0743 "
       style="fill:#ffffff;stroke:#000000;stroke-width:0.05;stroke-miterlimit:4;stroke-opacity:1;stroke-dasharray:0.1, 0.1;stroke-dashoffset:0"
       id="polygon22" />
  </g>
  <line
     style="stroke:none"
     x1="199"
     x2="199"
     y1="118"
     y2="90"
     id="line24" />
  <line
     style="stroke:none"
     x1="155"
     x2="129"
     y1="158"
     y2="133"
     id="line26" />
  <line
     style="stroke:none"
     x1="243"
     x2="267"
     y1="158"
     y2="134"
     id="line28" />
  <line
     style="stroke:none"
     x1="136"
     x2="101"
     y1="202"
     y2="202"
     id="line30" />
  <line
     style="stroke:none"
     x1="154"
     x2="131"
     y1="246"
     y2="271"
     id="line32" />
  <line
     style="stroke:none"
     x1="199"
     x2="199"
     y1="266"
     y2="299"
     id="line34" />
  <line
     style="stroke:none"
     x1="244"
     x2="268"
     y1="247"
     y2="271"
     id="line36" />
  <line
     style="stroke:none"
     x1="263"
     x2="295"
     y1="202"
     y2="202"
     id="line38" />
</svg>

<?xml version="1.0"?>
<!--
Copyright (C) 2012 United States Government as represented by the Administrator of the
National Aeronautics and Space Administration.
All Rights Reserved.
-->

<!DOCTYPE svg PUBLIC "-//W3C//DTD SVG 1.1//EN" "http://www.w3.org/Graphics/SVG/1.1/DTD/svg11.dtd" >
<!--
MIL-STD-2525 tactical symbol icon image. During icon composition this image is multiplied by the desired frame color 
(e.g. black), then drawn on top of the frame and fill.
-->
<svg xmlns:xlink="http://www.w3.org/1999/xlink" height="400px" viewBox="0 0 400 400" width="400px"><g transform="scale(120) translate(0.416667 0.408333)"><polygon points="1.21894,0.566547 1.26277,0.566547 1.26277,0.364929 1.21894,0.364929" style="fill:rgb(255,255,255)"/><polygon points="0.666197,0.728287 0.856177,0.918209 0.884846,0.887492 0.691701,0.694925 0.690882,0.700028" style="fill:rgb(255,255,255)"/><polygon points="1.60117,0.883059 1.63202,0.913886 1.81604,0.727705 1.78839,0.702059" style="fill:rgb(255,255,255)"/><polygon points="0.44315,1.29412 0.709988,1.29404 0.714898,1.25468 0.44315,1.25468" style="fill:rgb(255,255,255)"/><polygon points="1.77996,1.29412 2.03418,1.29412 2.03418,1.25468 1.77996,1.25468" style="fill:rgb(255,255,255)"/><path d="M1.06554 0.96978 L1.06554 0.98293 C1.06554 0.993237 1.09511 1.07332 1.10011 1.08862     C1.11505 1.13435 1.11482 1.15876 1.11375 1.20646 C1.08871 1.20438 1.02295     1.14472 1.00855 1.1232 C0.973453 1.07074 0.972048 1.05197 0.955965 0.98293     C0.936941 0.996871 0.91652 1.06225 0.91652 1.09689 L0.91652 1.1451 C0.91652     1.26074 0.990744 1.3213 0.995414 1.3774 C0.97678 1.37306 0.89439 1.31145 0.882536     1.29743 C0.867866 1.28006 0.814918 1.18785 0.802563 1.18455 C0.802563     1.26682 0.82426 1.32818 0.84587 1.38669 C0.857544 1.41828 0.869807 1.44595 0.880862     1.47442 C0.898331 1.51941 0.910768 1.51668 0.93487 1.54752 C0.994477     1.62379 1.13031 1.71927 1.26278 1.71927 L1.28031 1.71927 C1.32522 1.71927 1.4141     1.68343 1.44543 1.66525 C1.49376 1.63717 1.5381 1.60896 1.56962 1.5659     C1.62848 1.48552 1.67916 1.37189 1.67916 1.23276 L1.68015 1.17566 L1.67478     1.12757 L1.66601 1.12757 C1.64326 1.22523 1.57947 1.30438 1.49946 1.34672 C1.49946     1.2711 1.52773 1.23677 1.53804 1.1705 C1.54584 1.12035 1.51807 1.02695     1.51699 0.978549 C1.50768 0.985367 1.49158 1.09087 1.46525 1.12404 C1.45791     1.13328 1.3592 1.23289 1.3592 1.18893 L1.3592 1.1451 C1.3592 1.08272 1.39865     1.04534 1.39865 0.974167 C1.39865 0.957348 1.32701 0.85047 1.31349 0.842675     L1.31537 0.860206 C1.31537 0.884277 1.30727 0.945352 1.30056 0.963734 C1.29633     0.975309 1.25347 1.02676 1.24524 1.02676 C1.22018 1.02676 1.19265 0.966073     1.19265 0.934718 L1.19265 0.912805 C1.19265 0.853195 1.25076 0.786171 1.24683     0.746029 L1.23648 0.684887 C1.22475 0.693482 1.21076 0.747962 1.20324     0.765608 C1.1911 0.794104 1.17439 0.81099 1.1568 0.83312 C1.1418 0.851994 1.06554     0.950774 1.06554 0.96978 z" style="fill:rgb(255,255,255)"/><polygon points="0.665602,1.82338 0.694067,1.85185 0.878079,1.66567 0.849689,1.6393" style="fill:rgb(255,255,255)"/><polygon points="1.60802,1.67005 1.78974,1.85178 1.81611,1.82338 1.63431,1.64375" style="fill:rgb(255,255,255)"/><polygon points="1.21894,2.0743 1.26277,2.0743 1.26277,1.81131 1.21894,1.81131" style="fill:rgb(255,255,255)"/></g><line style="stroke:rgb(255,255,255);stroke-width:8" transform="matrix(1 0 0 1 0 0)" x1="199" x2="199" y1="118" y2="90"/><line style="stroke:rgb(255,255,255);stroke-width:8" transform="matrix(1 0 0 1 0 0)" x1="155" x2="129" y1="158" y2="133"/><line style="stroke:rgb(255,255,255);stroke-width:8" transform="matrix(1 0 0 1 0 0)" x1="243" x2="267" y1="158" y2="134"/><line style="stroke:rgb(255,255,255);stroke-width:8" transform="matrix(1 0 0 1 0 0)" x1="136" x2="101" y1="202" y2="202"/><line style="stroke:rgb(255,255,255);stroke-width:8" transform="matrix(1 0 0 1 0 0)" x1="154" x2="131" y1="246" y2="271"/><line style="stroke:rgb(255,255,255);stroke-width:8" transform="matrix(1 0 0 1 0 0)" x1="199" x2="199" y1="266" y2="299"/><line style="stroke:rgb(255,255,255);stroke-width:8" transform="matrix(1 0 0 1 0 0)" x1="244" x2="268" y1="247" y2="271"/><line style="stroke:rgb(255,255,255);stroke-width:8" transform="matrix(1 0 0 1 0 0)" x1="263" x2="295" y1="202" y2="202"/></svg>
